source/img/contact/icon-pin.svg

<svg width="20" height="19" viewBox="0 0 20 19" fill="none" xmlns="http://www.w3.org/2000/svg">
<g clip-path="url(#clip0)">
<path fill-rule="evenodd" clip-rule="evenodd" d="M10.0007 1.68657C8.36119 1.68657 6.78882 2.33786 5.6295 3.49718C4.47019 4.6565 3.81889 6.22887 3.81889 7.86839C3.81889 10.2623 5.37651 12.5853 7.0844 14.3881C7.92255 15.2728 8.76332 15.9971 9.39541 16.5004C9.63066 16.6877 9.83614 16.8438 10.0007 16.9654C10.1653 16.8438 10.3708 16.6877 10.606 16.5004C11.2381 15.9971 12.0789 15.2728 12.917 14.3881C14.6249 12.5853 16.1825 10.2623 16.1825 7.86839C16.1825 6.22887 15.5312 4.6565 14.3719 3.49718C13.2126 2.33786 11.6402 1.68657 10.0007 1.68657ZM10.0007 17.9138C9.57208 18.5568 9.57188 18.5567 9.57166 18.5565L9.56945 18.555L9.5643 18.5516L9.54659 18.5396C9.53155 18.5294 9.51009 18.5147 9.48264 18.4957C9.42776 18.4577 9.34889 18.4023 9.24946 18.3305C9.05068 18.1869 8.76926 17.9774 8.43271 17.7094C7.76083 17.1744 6.86296 16.4015 5.96247 15.451C4.19309 13.5833 2.27344 10.8835 2.27344 7.86839C2.27344 5.81899 3.08756 3.85352 4.5367 2.40438C5.98585 0.955234 7.95131 0.141113 10.0007 0.141113C12.0501 0.141113 14.0156 0.955234 15.4647 2.40438C16.9139 3.85352 17.728 5.81899 17.728 7.86839C17.728 10.8835 15.8083 13.5833 14.0389 15.451C13.1385 16.4015 12.2406 17.1744 11.5687 17.7094C11.2322 17.9774 10.9507 18.1869 10.752 18.3305C10.6525 18.4023 10.5737 18.4577 10.5188 18.4957C10.4913 18.5147 10.4699 18.5294 10.4548 18.5396L10.4371 18.5516L10.432 18.555L10.4303 18.5561C10.4301 18.5563 10.4293 18.5568 10.0007 17.9138ZM10.0007 17.9138L10.4293 18.5568C10.1698 18.7298 9.83122 18.7295 9.57166 18.5565L10.0007 17.9138Z" fill="#3C3D40"/>
<path fill-rule="evenodd" clip-rule="evenodd" d="M10.0011 6.3228C9.14753 6.3228 8.45561 7.01472 8.45561 7.86825C8.45561 8.72178 9.14753 9.41371 10.0011 9.41371C10.8546 9.41371 11.5465 8.72178 11.5465 7.86825C11.5465 7.01472 10.8546 6.3228 10.0011 6.3228ZM6.91016 7.86825C6.91016 6.16119 8.294 4.77734 10.0011 4.77734C11.7081 4.77734 13.092 6.16119 13.092 7.86825C13.092 9.57531 11.7081 10.9592 10.0011 10.9592C8.294 10.9592 6.91016 9.57531 6.91016 7.86825Z" fill="#3C3D40"/>
</g>
<defs>
<clipPath id="clip0">
<rect width="18.5455" height="18.5455" fill="white" transform="translate(0.726562 0.141113)"/>
</clipPath>
</defs>
</svg>

<svg width="20" height="19" fill="none" xmlns="http://www.w3.org/2000/svg"><g clip-path="url(#clip0)" fill-rule="evenodd" clip-rule="evenodd" fill="#3C3D40"><path d="M10 1.687a6.182 6.182 0 00-6.18 6.181c0 2.394 1.558 4.717 3.265 6.52a22.736 22.736 0 002.917 2.577 22.73 22.73 0 002.916-2.577c1.708-1.803 3.266-4.126 3.266-6.52A6.182 6.182 0 0010 1.687zm0 16.227l-.428.642-.003-.001-.005-.003-.017-.012a8.474 8.474 0 01-.298-.21 24.283 24.283 0 01-3.287-2.88c-1.769-1.867-3.689-4.567-3.689-7.582a7.727 7.727 0 1115.455 0c0 3.015-1.92 5.715-3.69 7.583a24.271 24.271 0 01-3.52 3.045 8.092 8.092 0 01-.063.044l-.018.012-.005.003-.002.001-.43-.642zm0 0l.43.643a.773.773 0 01-.858 0l.429-.643z"/><path d="M10.001 6.323a1.545 1.545 0 100 3.09 1.545 1.545 0 000-3.09zm-3.09 1.545a3.09 3.09 0 116.181 0 3.09 3.09 0 01-6.182 0z"/></g><defs><clipPath id="clip0"><path fill="#fff" transform="translate(.727 .141)" d="M0 0h18.546v18.546H0z"/></clipPath></defs></svg>
